src/images/icon-save2.svg

<svg version="1.1" xmlns="http://www.w3.org/2000/svg" xmlns:xlink="http://www.w3.org/1999/xlink" width="14" height="12" viewBox="0,0,256,219.42188"><g fill="#202020" fill-rule="nonzero" stroke="none" stroke-width="1" stroke-linecap="butt" stroke-linejoin="miter" stroke-miterlimit="10" stroke-dasharray="" stroke-dashoffset="0" font-family="none" font-weight="none" font-size="none" text-anchor="none" style="mix-blend-mode: normal"><path d="M0,219.42188v-219.42187h256v219.42188z" id="bgRectangle"></path></g><g fill="#ff3055" fill-rule="nonzero" stroke="none" stroke-width="1" stroke-linecap="butt" stroke-linejoin="miter" stroke-miterlimit="10" stroke-dasharray="" stroke-dashoffset="0" font-family="none" font-weight="none" font-size="none" text-anchor="none" style="mix-blend-mode: normal"><g transform="translate(0,-0.00335) scale(18.28571,18.28571)"><path d="M10.1818,0c-1.39998,0 -2.41816,0.73846 -3.1818,1.53846c-0.76364,-0.73846 -1.78182,-1.53846 -3.18182,-1.53846c-2.22727,0 -3.81818,1.78462 -3.81818,4c0,1.10769 0.44545,2.09231 1.27273,2.76923l5.72727,5.23077l5.7273,-5.23077c0.7636,-0.73846 1.2727,-1.66154 1.2727,-2.76923c0,-2.21538 -1.5909,-4 -3.8182,-4z"></path></g></g></svg>

<svg width="14" height="12" viewBox="0 0 14 12" fill="none" xmlns="http://www.w3.org/2000/svg">
<path d="M10.1818 0C8.78182 0 7.76364 0.738462 7 1.53846C6.23636 0.8 5.21818 0 3.81818 0C1.59091 0 0 1.78462 0 4C0 5.10769 0.445455 6.09231 1.27273 6.76923L7 12L12.7273 6.76923C13.4909 6.03077 14 5.10769 14 4C14 1.78462 12.4091 0 10.1818 0Z" fill="#FF3055"/>
</svg>
